X: 515
T: St Kilda's Reel
R: reel
B: "Preston's Twenty Four Country Dances for the Year 1804", Tho. Preston, ed. p.218
F: http://imslp.org/wiki/24_Country_Dances_for_the_Year_1804_(Preston_(publisher),_Thomas)
M: C_
L: 1/8
K: Bb
|: f2fe dB-Bd | f2fe dB-Bd | f2fe dB-Bd | cdcB AF-FA :|
|: d2dc BG-GB | dedB G2GB  | dedc BGGB  | cdcB AFFA  :|
% - - - - - - - - - - - - - - - - - - - - - - - - -
%%begintext align
%% 1st Cu. set to 2d Lady & hands 3 round, the same
%% with the 2d Gentn. lead down the middle up again
%% & cast off.
%%endtext

%%sep 1 1 500
